img/svg/logo.svg

<svg width="146" height="28" viewBox="0 0 146 28" fill="none" xmlns="http://www.w3.org/2000/svg">
<path d="M42.3855 19.4685L33.0698 3.30927C31.0275 -0.0587229 26.0472 -0.0945535 24.0765 3.45259L14.295 20.2567C12.4677 23.3381 14.725 27.2077 18.3796 27.2077H37.9785C41.6689 27.2077 44.4278 23.2306 42.3855 19.4685Z" fill="#3156AA"/>
<path d="M28.9507 20.7231L28.3774 19.7199C27.84 18.7883 26.6576 16.7818 26.6576 16.7818L18.7751 3.09485C16.7328 0.0493267 11.8957 -0.201482 9.85345 3.6323L0.681034 19.5049C-1.21794 22.837 1.03933 27.1724 5.15975 27.2083H24.6511H32.9636H37.9081C32.8561 27.2441 31.2438 24.6285 28.9507 20.7231Z" fill="#1972E2"/>
<path d="M28.951 20.7229L28.3777 19.7197C27.8402 18.7881 26.6579 16.7817 26.6579 16.7817L21.57 7.82422L14.2608 20.293C12.4335 23.3743 14.6907 27.2439 18.3454 27.2439H24.6156H32.9281H37.9084C32.8206 27.2081 31.2441 24.6284 28.951 20.7229Z" fill="url(#paint0_linear_5316_35437)"/>
<path d="M124.362 14.8026C124.404 21.0965 129.523 26.0476 135.817 25.9637C139.719 25.9637 142.74 24.621 145.006 21.9776L143.579 20.7608C142.656 20.0056 141.355 19.9636 140.432 20.6769C139.173 21.6 137.621 22.1035 135.775 22.1035C131.411 22.1035 128.684 19.2922 128.684 14.7187C128.684 10.1871 131.327 7.50177 135.775 7.50177C137.579 7.50177 139.173 7.96331 140.432 8.92837C141.397 9.64167 142.698 9.59972 143.579 8.84445L145.006 7.62764C142.74 4.94226 139.593 3.55762 135.607 3.55762C132.208 3.55762 129.355 4.60659 127.383 6.53671C125.411 8.50878 124.362 11.362 124.362 14.8026Z" fill="white"/>
<path d="M65.4928 23.4044L71.451 12.9986V25.6702H75.9825V3.80957H73.1713C72.2902 3.80957 71.451 4.27112 71.0314 5.06834L63.8983 18.0756L56.7653 5.06834C56.3457 4.27112 55.5065 3.80957 54.6254 3.80957H51.8141V25.6702H56.3457V12.9986L62.3039 23.4044H65.4928Z" fill="white"/>
<path d="M79.7163 3.85107V25.7117L97.8846 25.6698V24.2851C97.8846 23.1942 97.0034 22.313 95.9125 22.313H84.2479V16.4388H95.9125V13.0821H84.2479V7.2078H95.9125C97.0034 7.2078 97.8846 6.32666 97.8846 5.23572V3.85107H79.7163Z" fill="white"/>
<path d="M119.706 3.85107H123.985L115.342 14.8443L124.027 25.7537H119.748C118.95 25.7537 118.237 25.376 117.733 24.7886L112.531 18.285L107.37 24.7467C106.866 25.376 106.153 25.7117 105.356 25.7117H101.076L109.761 14.8024L101.076 3.89303H105.356C106.153 3.89303 106.866 4.22871 107.37 4.85809L112.531 11.3198L117.692 4.81613C118.195 4.18675 118.908 3.85107 119.706 3.85107Z" fill="white"/>
<defs>
<linearGradient id="paint0_linear_5316_35437" x1="11.6594" y1="14.6276" x2="34.3031" y2="22.9952" gradientUnits="userSpaceOnUse">
<stop stop-color="#264CA2" stop-opacity="0"/>
<stop offset="1" stop-color="#234588"/>
</linearGradient>
</defs>
</svg>

<svg width="146" height="28" viewBox="0 0 146 28" fill="none" xmlns="http://www.w3.org/2000/svg"><path d="M42.386 19.468L33.07 3.31c-2.043-3.368-7.023-3.404-8.994.144l-9.781 16.804c-1.827 3.081.43 6.95 4.085 6.95h19.598c3.69 0 6.45-3.976 4.407-7.739z" fill="#3156AA"/><path d="M28.95 20.723l-.573-1.003c-.537-.932-1.72-2.938-1.72-2.938L18.776 3.095c-2.042-3.046-6.88-3.296-8.922.537L.681 19.505c-1.899 3.332.358 7.667 4.479 7.703h32.748c-5.052.036-6.664-2.58-8.957-6.485z" fill="#1972E2"/><path d="M28.951 20.723l-.573-1.003c-.538-.932-1.72-2.938-1.72-2.938L21.57 7.824l-7.31 12.469c-1.826 3.081.43 6.95 4.085 6.95h19.563c-5.087-.035-6.664-2.615-8.957-6.52z" fill="url(#paint0_linear_5316_35437)"/><path d="M124.362 14.803c.042 6.293 5.161 11.245 11.455 11.16 3.902 0 6.923-1.342 9.189-3.985l-1.427-1.217c-.923-.755-2.224-.797-3.147-.084-1.259.923-2.811 1.427-4.657 1.427-4.364 0-7.091-2.812-7.091-7.385 0-4.532 2.643-7.217 7.091-7.217 1.804 0 3.398.461 4.657 1.426.965.714 2.266.672 3.147-.084l1.427-1.216c-2.266-2.686-5.413-4.07-9.399-4.07-3.399 0-6.252 1.049-8.224 2.979-1.972 1.972-3.021 4.825-3.021 8.266zm-58.869 8.601L71.45 13v12.67h4.532V3.81H73.17c-.88 0-1.72.461-2.14 1.258l-7.133 13.008-7.133-13.008c-.42-.797-1.258-1.258-2.14-1.258h-2.81v21.86h4.53V13l5.959 10.405h3.189zM79.716 3.851v21.86l18.169-.041v-1.385a1.97 1.97 0 00-1.973-1.972H84.248v-5.874h11.664v-3.357H84.248V7.208h11.664a1.97 1.97 0 001.973-1.972V3.85H79.716zm39.99 0h4.279l-8.643 10.993 8.685 10.91h-4.279c-.798 0-1.511-.378-2.015-.965l-5.202-6.504-5.161 6.462a2.525 2.525 0 01-2.014.965h-4.28l8.685-10.91-8.685-10.909h4.28c.797 0 1.51.336 2.014.965l5.161 6.462 5.161-6.504a2.522 2.522 0 012.014-.965z" fill="#fff"/><defs><linearGradient id="paint0_linear_5316_35437" x1="11.659" y1="14.628" x2="34.303" y2="22.995" gradientUnits="userSpaceOnUse"><stop stop-color="#264CA2" stop-opacity="0"/><stop offset="1" stop-color="#234588"/></linearGradient></defs></svg>
